src/images/React.svg

<svg width="97" height="97" viewBox="0 0 97 97" fill="none" xmlns="http://www.w3.org/2000/svg">
<mask id="mask0_24_990" style="mask-type:alpha" maskUnits="userSpaceOnUse" x="0" y="0" width="97" height="97">
<path d="M56.6205 48.427C56.6205 44.0789 52.9851 40.5536 48.5001 40.5536C44.0156 40.5536 40.3796 44.0789 40.3796 48.427C40.3796 52.7756 44.0156 56.3006 48.5001 56.3006C52.9851 56.3006 56.6205 52.7756 56.6205 48.427Z" fill="#53C1DE"/>
<path fill-rule="evenodd" clip-rule="evenodd" d="M74.8731 33.8097C76.5879 27.0532 78.7434 14.5242 71.1447 10.2764C63.5814 6.04719 53.7392 14.1512 48.5421 19.0156C43.3602 14.1996 33.2416 6.13031 25.6493 10.3915C18.089 14.635 20.4204 26.9563 22.1733 33.7551C15.1208 35.6972 3.03125 39.8803 3.03125 48.4269C3.03125 56.9493 15.1082 61.5004 22.119 63.4407C20.3596 70.2771 18.1449 82.4224 25.7149 86.6565C33.3356 90.9169 43.4227 83.0396 48.6679 78.122C53.8984 83.015 63.6459 90.9439 71.2107 86.698C78.7992 82.4388 76.8228 70.0776 75.0698 63.2394C81.8659 61.2949 93.9688 56.8429 93.9688 48.4269C93.9688 39.9625 81.8143 35.7454 74.8731 33.8097ZM74.0116 59.6156C72.8606 56.083 71.3071 52.3263 69.4068 48.4457C71.2207 44.6567 72.7139 40.9485 73.8328 37.4387C78.9213 38.8691 90.0842 42.1383 90.0842 48.4269C90.0842 54.7747 79.3721 58.0748 74.0116 59.6156ZM69.2641 83.4382C63.6199 86.6058 55.2357 79.0235 51.373 75.4202C53.9356 72.7027 56.4964 69.5435 58.9957 66.0355C63.3922 65.6575 67.5453 65.0391 71.312 64.1949C72.5457 69.0319 74.9331 80.2563 69.2641 83.4382ZM27.656 83.393C22.0112 80.2372 24.5913 69.3992 25.8856 64.3634C29.6103 65.1625 33.7336 65.7372 38.1404 66.0837C40.656 69.5163 43.2911 72.6715 45.9465 75.4348C42.6658 78.5118 33.3271 86.5634 27.656 83.393ZM6.91577 48.4269C6.91577 42.0556 18.0119 38.81 23.2165 37.3832C24.3546 40.9719 25.8473 44.7243 27.6487 48.5188C25.824 52.3697 24.3099 56.1815 23.1613 59.8126C18.1987 58.4352 6.91577 54.8023 6.91577 48.4269ZM27.5956 13.6514C33.2634 10.4704 42.0577 18.2173 45.8201 21.7041C43.1783 24.4547 40.5675 27.5862 38.0734 30.9991C33.7966 31.3834 29.7025 32.0006 25.9387 32.8275C24.5266 27.344 21.9339 16.8289 27.5956 13.6514ZM61.7747 35.0931C64.6763 35.448 67.4562 35.9203 70.0664 36.4981C69.2829 38.9334 68.3062 41.4799 67.1558 44.0904C65.4883 41.0228 63.6984 38.0167 61.7747 35.0931ZM48.5433 24.3958C50.3351 26.2778 52.1296 28.3795 53.895 30.6596C50.3142 30.4953 46.7276 30.4947 43.1468 30.6571C44.9137 28.3982 46.7237 26.2997 48.5433 24.3958ZM29.8775 44.0877C28.7462 41.4863 27.7783 38.9285 26.9879 36.4584C29.5825 35.8955 32.3495 35.4353 35.2322 35.0861C33.3031 38.0034 31.5162 41.0083 29.8775 44.0877ZM35.315 62.0366C32.3371 61.7144 29.5282 61.2776 26.9344 60.7302C27.7373 58.2167 28.7265 55.6037 29.8819 52.9462C31.5432 56.0578 33.3574 59.0918 35.315 62.0366ZM48.651 72.7242C46.8098 70.7979 44.9731 68.6672 43.1796 66.3756C46.7807 66.5126 50.3888 66.5129 53.9896 66.3571C52.2187 68.6905 50.4306 70.8242 48.651 72.7242ZM67.1928 52.811C68.4083 55.4973 69.4329 58.096 70.2468 60.5671C67.6099 61.1506 64.7633 61.6205 61.7638 61.9694C63.7017 58.9902 65.5202 55.9375 67.1928 52.811ZM56.8278 62.4259C51.3194 62.8075 45.7767 62.8033 40.2665 62.4571C37.1355 58.0227 34.3483 53.3591 31.9424 48.5176C34.3368 43.6861 37.1037 39.0316 40.2198 34.6041C45.734 34.2001 51.2821 34.1989 56.7962 34.6066C59.8857 39.0337 62.6484 43.6761 65.0982 48.4639C62.6775 53.293 59.896 57.9569 56.8278 62.4259ZM69.2043 13.5394C74.8737 16.7099 72.3502 27.9701 71.1116 32.8666C67.3389 32.0224 63.2419 31.3943 58.9527 31.0039C56.4537 27.5542 53.8647 24.4173 51.2657 21.7022C55.0763 18.1402 63.5899 10.3999 69.2043 13.5394Z" fill="#53C1DE"/>
</mask>
<g mask="url(#mask0_24_990)">
<rect x="3.03125" width="93.9688" height="87.9062" fill="url(#paint0_linear_24_990)"/>
</g>
<defs>
<linearGradient id="paint0_linear_24_990" x1="21.6628" y1="75.5705" x2="67.8544" y2="-6.61279" gradientUnits="userSpaceOnUse">
<stop offset="0.00833321" stop-color="#5C03BC"/>
<stop offset="0.53125" stop-color="#E536AB"/>
<stop offset="0.898958" stop-color="#F4E5F0"/>
</linearGradient>
</defs>
</svg>

<svg xmlns="http://www.w3.org/2000/svg" width="97" height="97" fill="none"><mask id="a" width="97" height="97" x="0" y="0" maskUnits="userSpaceOnUse" style="mask-type:alpha"><path fill="#53C1DE" d="M56.62 48.427c0-4.348-3.635-7.873-8.12-7.873-4.484 0-8.12 3.525-8.12 7.873 0 4.349 3.636 7.874 8.12 7.874 4.485 0 8.12-3.525 8.12-7.874Z"/><path fill="#53C1DE" fill-rule="evenodd" d="M74.873 33.81c1.715-6.757 3.87-19.286-3.728-23.534-7.564-4.229-17.406 3.875-22.603 8.74C43.36 14.2 33.242 6.13 25.65 10.392c-7.56 4.243-5.229 16.564-3.476 23.363-7.052 1.942-19.142 6.125-19.142 14.672 0 8.522 12.077 13.073 19.088 15.014-1.76 6.836-3.974 18.981 3.596 23.215 7.62 4.26 17.708-3.616 22.953-8.534 5.23 4.893 14.978 12.822 22.543 8.576 7.588-4.26 5.612-16.62 3.859-23.459 6.796-1.944 18.899-6.396 18.899-14.812 0-8.465-12.155-12.682-19.096-14.617Zm-.861 25.806c-1.151-3.533-2.705-7.29-4.605-11.17 1.814-3.79 3.307-7.497 4.426-11.007 5.088 1.43 16.251 4.7 16.251 10.988 0 6.348-10.712 9.648-16.072 11.189Zm-4.748 23.822c-5.644 3.168-14.028-4.415-17.891-8.018 2.563-2.717 5.123-5.877 7.623-9.385 4.396-.377 8.55-.996 12.316-1.84 1.234 4.837 3.621 16.061-2.048 19.243Zm-41.608-.045c-5.645-3.156-3.065-13.994-1.77-19.03 3.724.8 7.848 1.374 12.254 1.72 2.516 3.433 5.151 6.588 7.806 9.352-3.28 3.077-12.619 11.128-18.29 7.958ZM6.916 48.427c0-6.371 11.096-9.617 16.3-11.044 1.139 3.589 2.631 7.341 4.433 11.136-1.825 3.85-3.34 7.663-4.488 11.294-4.962-1.378-16.245-5.01-16.245-11.386Zm20.68-34.776c5.667-3.18 14.462 4.566 18.224 8.053-2.642 2.75-5.252 5.882-7.747 9.295-4.276.384-8.37 1.002-12.134 1.829-1.412-5.484-4.005-16 1.657-19.177Zm34.179 21.442c2.901.355 5.681.827 8.291 1.405a78.738 78.738 0 0 1-2.91 7.592 124.757 124.757 0 0 0-5.381-8.997ZM48.543 24.396a81.188 81.188 0 0 1 5.352 6.264 117.93 117.93 0 0 0-10.748-.003 83.843 83.843 0 0 1 5.396-6.261ZM29.878 44.088a81.486 81.486 0 0 1-2.89-7.63 90.215 90.215 0 0 1 8.244-1.372 110.054 110.054 0 0 0-5.354 9.002Zm5.437 17.949c-2.978-.323-5.787-.76-8.38-1.307a82.877 82.877 0 0 1 2.947-7.784 110.048 110.048 0 0 0 5.433 9.09Zm13.336 10.687a85.27 85.27 0 0 1-5.471-6.348c3.6.137 7.209.137 10.81-.019a80.697 80.697 0 0 1-5.339 6.367Zm18.542-19.913c1.215 2.686 2.24 5.285 3.054 7.756a84.789 84.789 0 0 1-8.483 1.402 124.62 124.62 0 0 0 5.429-9.158Zm-10.365 9.615c-5.509.381-11.051.377-16.562.031a105.858 105.858 0 0 1-8.324-13.94 105.824 105.824 0 0 1 8.278-13.913 112.992 112.992 0 0 1 16.576.003c3.09 4.427 5.852 9.07 8.302 13.857-2.42 4.829-5.202 9.493-8.27 13.962Zm12.376-48.887c5.67 3.17 3.146 14.431 1.908 19.328-3.773-.845-7.87-1.473-12.16-1.863-2.498-3.45-5.087-6.587-7.686-9.302C55.076 18.14 63.59 10.4 69.204 13.54Z" clip-rule="evenodd"/></mask><g mask="url(#a)"><path fill="url(#b)" d="M3.031 0H97v87.906H3.031z"/></g><defs><linearGradient id="b" x1="21.663" x2="67.854" y1="75.57" y2="-6.613" gradientUnits="userSpaceOnUse"><stop offset=".008" stop-color="#5C03BC"/><stop offset=".531" stop-color="#E536AB"/><stop offset=".899" stop-color="#F4E5F0"/></linearGradient></defs></svg>
